svgs/sharp-regular/command.svg

<svg xmlns="http://www.w3.org/2000/svg" viewBox="0 0 512 512"><!--! Font Awesome Pro 6.6.0 by @fontawesome - https://fontawesome.com License - https://fontawesome.com/license (Commercial License) Copyright 2024 Fonticons, Inc. --><path d="M0 0L24 0 160 0l24 0 0 24 0 112 144 0 0-112 0-24 24 0L488 0l24 0 0 24 0 144 0 24-24 0-112 0 0 128 112 0 24 0 0 24 0 144 0 24-24 0-136 0-24 0 0-24 0-112-144 0 0 112 0 24-24 0L24 512 0 512l0-24L0 344l0-24 24 0 112 0 0-128L24 192 0 192l0-24L0 24 0 0zM136 144l0-8 0-88L48 48l0 96 88 0zm48 176l0 8 144 0 0-8 0-128 0-8-144 0 0 8 0 128zm-48 48l-88 0 0 96 88 0 0-88 0-8zm240 8l0 88 88 0 0-96-88 0 0 8zm0-232l88 0 0-96-88 0 0 88 0 8z"/></svg>

<svg xmlns="http://www.w3.org/2000/svg" viewBox="0 0 512 512"><!--! Font Awesome Pro 6.4.0 by @fontawesome - https://fontawesome.com License - https://fontawesome.com/license (Commercial License) Copyright 2023 Fonticons, Inc. --><path d="M0 0H24 160h24V24 136H328V24 0h24H488h24V24 168v24H488 376V320H488h24v24V488v24H488 352 328V488 376H184V488v24H160 24 0V488 344 320H24 136V192H24 0V168 24 0zM136 144v-8V48H48v96h88zm48 176v8H328v-8V192v-8H184v8V320zm-48 48H48v96h88V376v-8zm240 8v88h88V368H376v8zm0-232h88V48H376v88 8z"/></svg>
